img/svg/shield.svg

<svg width="44" height="43" viewBox="0 0 44 43" fill="none" xmlns="http://www.w3.org/2000/svg">
<g clip-path="url(#clip0)">
<path d="M40.8099 6.96399C40.7098 6.58576 40.3221 6.36019 39.9438 6.4601C27.8517 9.64502 23.0069 1.6883 22.3931 0.566333C22.3743 0.505871 22.3478 0.447983 22.3145 0.394081C22.1735 0.197578 21.9465 0.0810547 21.7046 0.0810547C21.4628 0.0810547 21.2357 0.197578 21.0948 0.394081C21.0547 0.459942 21.0253 0.5317 21.0076 0.606697C20.3073 1.86113 15.4378 9.60598 3.47815 6.46002C3.1001 6.36061 2.7129 6.58601 2.61283 6.9639C2.54763 7.21057 -3.62387 31.7464 21.4002 42.5048C21.5011 42.5548 21.6122 42.581 21.7248 42.5813C21.8628 42.5812 21.9978 42.5408 22.1132 42.4651C47.031 31.6869 40.8752 7.21057 40.8099 6.96399ZM21.7114 41.0923C0.101802 31.6465 2.99196 11.9881 3.82615 8.00721C14.5328 10.5104 19.9615 4.59407 21.7114 2.11353C23.4612 4.59407 28.8907 10.5118 39.5966 8.00439C40.4307 11.9859 43.3209 31.6444 21.7114 41.0923Z" fill="white"/>
<path d="M38.2775 9.94006C38.1257 9.82395 37.9336 9.77404 37.7446 9.80161C36.6958 9.95593 35.6374 10.0348 34.5774 10.0376C34.1859 10.0376 33.8687 10.3549 33.8687 10.7463C33.8687 11.1378 34.186 11.455 34.5774 11.455C35.4603 11.4535 36.3425 11.4015 37.2194 11.2991C37.7963 17.3976 37.0642 30.6614 21.7106 37.9782C20.254 37.2894 18.8476 36.4989 17.5022 35.6125C17.2913 35.4636 17.0161 35.4411 16.7839 35.5538C16.5517 35.6665 16.3991 35.8965 16.3856 36.1543C16.3722 36.4121 16.4999 36.6569 16.7191 36.7932C18.2159 37.7799 19.7847 38.6529 21.4122 39.4048C21.6018 39.493 21.8208 39.493 22.0104 39.4048C39.1302 31.4303 39.2804 16.4763 38.5505 10.4182C38.5275 10.2286 38.4291 10.0562 38.2775 9.94006Z" fill="white"/>
<path d="M6.6802 19.8078C6.11951 17.0096 5.96528 14.1453 6.22233 11.3032C7.09281 11.404 7.96827 11.4554 8.84456 11.457C13.6238 11.5544 18.2481 9.75986 21.7106 6.46407C23.6619 8.33941 26.0192 9.73977 28.5994 10.5562C28.8421 10.6385 29.1102 10.5834 29.3008 10.4121C29.4914 10.2407 29.5747 9.97987 29.5186 9.72988C29.4625 9.47981 29.2758 9.27957 29.0303 9.20607C26.4446 8.38484 24.1055 6.92925 22.2266 4.97219C21.9432 4.69579 21.491 4.69579 21.2075 4.97219C17.9712 8.30419 13.4941 10.1388 8.85029 10.036C7.79552 10.0332 6.74224 9.95504 5.6986 9.80214C5.50907 9.77481 5.31647 9.82548 5.16482 9.94241C5.01316 10.0594 4.91524 10.2327 4.89348 10.423C4.52381 13.6473 4.6601 16.9097 5.29745 20.092C6.1965 24.705 8.35986 28.9774 11.5462 32.4322C11.6804 32.5769 11.8689 32.6591 12.0664 32.659C12.3482 32.6592 12.6035 32.4923 12.7163 32.234C12.8292 31.9757 12.7782 31.675 12.5865 31.4683C9.57468 28.2043 7.52967 24.1671 6.6802 19.8078Z" fill="white"/>
<path d="M6.84168 35.4941H5.4243V34.0766C5.4243 33.6852 5.10703 33.3679 4.71561 33.3679C4.32418 33.3679 4.00692 33.6852 4.00692 34.0766V35.4941H2.58937C2.19794 35.4941 1.88068 35.8113 1.88068 36.2028C1.88068 36.5942 2.19794 36.9115 2.58937 36.9115H4.00683V38.3289C4.00683 38.7204 4.32418 39.0376 4.71552 39.0376C5.10687 39.0376 5.42421 38.7204 5.42421 38.3289V36.9115H6.84168C7.23311 36.9115 7.55037 36.5942 7.55037 36.2028C7.55037 35.8113 7.23311 35.4941 6.84168 35.4941Z" fill="white"/>
<path d="M41.5689 39.0375H40.1514V37.6201C40.1514 37.2286 39.8341 36.9114 39.4428 36.9114C39.0513 36.9114 38.7341 37.2287 38.7341 37.6201V39.0375H37.3166C36.9252 39.0375 36.6079 39.3548 36.6079 39.7462C36.6079 40.1377 36.9252 40.4549 37.3166 40.4549H38.7341V41.8724C38.7341 42.2638 39.0514 42.5811 39.4428 42.5811C39.8342 42.5811 40.1514 42.2638 40.1514 41.8724V40.455H41.5689C41.9603 40.455 42.2776 40.1377 42.2776 39.7463C42.2776 39.3549 41.9603 39.0375 41.5689 39.0375Z" fill="white"/>
<path d="M35.8991 2.89295H36.6078V3.60164C36.6078 3.99307 36.9251 4.31033 37.3165 4.31033C37.7079 4.31033 38.0253 3.99315 38.0253 3.60173V2.89304H38.734C39.1254 2.89304 39.4427 2.57569 39.4427 2.18434C39.4427 1.793 39.1254 1.47565 38.734 1.47565H38.0253V0.766796C38.0253 0.375368 37.708 0.0581055 37.3166 0.0581055C36.9252 0.0581055 36.6079 0.375368 36.6079 0.766796V1.47549H35.8991C35.5077 1.47549 35.1904 1.79275 35.1904 2.18418C35.1904 2.57561 35.5077 2.89295 35.8991 2.89295Z" fill="white"/>
<path d="M23.053 30.7263H21.4183V19.8894L18.1399 21.0935V19.6169L22.7981 17.8679H23.053V30.7263Z" fill="white"/>
</g>
<defs>
<clipPath id="clip0">
<rect width="42.5231" height="42.5231" fill="white" transform="translate(0.817627 0.0581055)"/>
</clipPath>
</defs>
</svg>

<svg width="44" height="43" viewBox="0 0 44 43" fill="none" xmlns="http://www.w3.org/2000/svg"><g clip-path="url(#a)" fill="#fff"><path d="M40.81 6.964a.709.709 0 0 0-.866-.504C27.852 9.645 23.007 1.688 22.394.566a.754.754 0 0 0-.08-.172.75.75 0 0 0-1.22 0 .732.732 0 0 0-.086.213c-.7 1.254-5.57 8.999-17.53 5.853a.709.709 0 0 0-.865.504c-.065.247-6.237 24.782 18.787 35.54a.71.71 0 0 0 .713-.04C47.031 31.688 40.875 7.212 40.81 6.965zm-19.1 34.128C.101 31.647 2.992 11.988 3.826 8.007c10.707 2.503 16.136-3.413 17.885-5.893 1.75 2.48 7.18 8.398 17.886 5.89.834 3.982 3.724 23.64-17.886 33.088z"/><path d="M38.278 9.94a.709.709 0 0 0-.533-.138 22.158 22.158 0 0 1-3.168.236.709.709 0 1 0 0 1.417 23.118 23.118 0 0 0 2.642-.156c.577 6.099-.155 19.362-15.508 26.68a34.307 34.307 0 0 1-4.209-2.367.709.709 0 1 0-.783 1.181 35.831 35.831 0 0 0 4.693 2.612.71.71 0 0 0 .598 0c17.12-7.975 17.27-22.929 16.54-28.987a.71.71 0 0 0-.272-.478zM6.68 19.808a29.68 29.68 0 0 1-.458-8.505c.87.101 1.746.152 2.623.154A18.126 18.126 0 0 0 21.71 6.464a17.607 17.607 0 0 0 6.888 4.092.709.709 0 1 0 .431-1.35 16.251 16.251 0 0 1-6.803-4.234.73.73 0 0 0-1.02 0A16.711 16.711 0 0 1 8.85 10.036a22.148 22.148 0 0 1-3.15-.234.709.709 0 0 0-.806.621 31.162 31.162 0 0 0 .404 9.669 25.356 25.356 0 0 0 6.25 12.34.709.709 0 0 0 1.04-.964 23.95 23.95 0 0 1-5.907-11.66zm.162 15.686H5.424v-1.417a.709.709 0 1 0-1.417 0v1.417H2.589a.709.709 0 1 0 0 1.417h1.418v1.418a.709.709 0 1 0 1.417 0V36.91h1.418a.709.709 0 1 0 0-1.417zm34.727 3.544H40.15V37.62a.709.709 0 1 0-1.417 0v1.418h-1.417a.709.709 0 0 0 0 1.417h1.417v1.417a.709.709 0 0 0 1.417 0v-1.417h1.418a.709.709 0 0 0 0-1.417zM35.9 2.893h.708v.709a.709.709 0 0 0 1.417 0v-.709h.709a.709.709 0 0 0 0-1.417h-.709v-.71a.709.709 0 1 0-1.417 0v.71h-.709a.709.709 0 1 0 0 1.417z"/><path d="M23.053 30.726h-1.635V19.89l-3.278 1.204v-1.476l4.658-1.75h.255v12.86z"/></g><defs><clipPath id="a"><path fill="#fff" transform="translate(.818 .058)" d="M0 0h42.523v42.523H0z"/></clipPath></defs></svg>
